X:1
T:Title
%%score { 1 | 2 }
L:1/8
M:2/4
K:Bb
V:1 treble nm="Grand Piano"
V:2 bass 
V:1
 z2 z[Q:1/4=82] [DF] | [DF][DB] [DB]>[Ec] | BA A>B | AG E>G | [DF]3 [DF] | [DF][DFB] [DFB]>[EFc] | %6
 BA A>A | [=Ec][EG] [FA]>[EG] | F3 F | c=B d>c | [DB][EG] [DF]>[DF] | [C=E][EG] [Ec]>[GB] | %12
 [FA]3 [EF] | [DF][DB] [Fd]>[DB] | [FA][EG] [GB]>[EG] | FB d>c |[M:3/8] [DB]3 |] %17
V:2
 z2 z [B,,B,] | [B,,B,][B,,F,] [B,,F,]>[B,,F,] | [F,D][F,C] [F,C]>[F,D] | %3
 [F,C][F,E] [F,A,C]>[F,A,E] | [B,,B,]3 [B,,B,] | [B,,B,]B,, B,,>B,, | [F,DF][F,CF] [F,CF]>[F,CF] | %7
 [C,C][C,C] [C,C]>[C,B,] | [F,A,]3 [F,A,] | [F,A,F][F,_A,F] [F,=A,F]>[F,A,E] | %10
 [B,,B,][B,,B,] [B,,B,]>[B,,B,] | [C,G,][C,C] [C,C]>[C,C] | [F,C]3 [F,A,] | %13
 [B,,B,][B,,B,] [B,,B,]>[B,,B,] | [E,B,][E,B,] [E,B,]>[D,B,] | [F,B,D][F,B,D] [F,B,F]>[F,A,E] | %16
[M:3/8] [B,,B,]3 |] %17

